src/assets/vector.svg

<svg width="118" height="118" viewBox="0 0 118 118" fill="none" xmlns="http://www.w3.org/2000/svg">
<g filter="url(#filter0_d_186_24968)">
<path fill-rule="evenodd" clip-rule="evenodd" d="M31.5522 0.360958C31.1644 0.55217 30.6326 1.00915 30.3705 1.37653L29.8939 2.0447L29.8365 19.6074L29.7792 37.1702L28.2251 37.952C14.0041 45.1059 5.67282 54.4171 4.23324 64.7653C2.64067 76.2148 9.24879 87.1481 22.6736 95.2757C36.0517 103.375 55.39 108.597 76.4117 109.785C86.5965 110.361 92.7572 109.807 98.8602 107.765C103.536 106.201 106.494 104.452 109.403 101.534C111.035 99.8961 111.506 99.2581 112.347 97.5434C114.61 92.9304 114.535 88.09 112.138 84.0303C109.964 80.3476 105.374 76.7618 100.154 74.668C97.7489 73.7031 96.7848 73.0755 95.9604 71.9375C94.1538 69.4438 94.2972 65.9616 96.2939 63.8271C97.2176 62.8396 97.651 62.5945 100.906 61.2178C104.402 59.7394 107.592 57.5719 109.869 55.1293C115.333 49.2681 115.38 41.8175 109.99 36.0884C105.782 31.6162 98.6675 28.4114 89.411 26.8189C87.0316 26.4096 85.838 26.339 81.3536 26.3418C67.915 26.3503 52.2977 28.9167 40.0999 33.121C38.3864 33.7116 36.8153 34.2474 36.6084 34.3119C36.2579 34.421 36.2324 34.1015 36.2324 29.6222V24.8155L48.3027 20.305C58.4378 16.518 60.4861 15.6833 61.0768 15.0998C62.3129 13.8786 62.3129 11.9104 61.077 10.689C60.4829 10.1023 58.2842 9.21473 46.96 4.99023C39.5825 2.23827 33.2565 -0.00728696 32.902 1.77712e-05C32.5475 0.00732251 31.94 0.169745 31.5522 0.360958ZM34.9432 34.9949C34.4114 35.2045 33.0337 35.7906 31.8814 36.2973L29.7865 37.2187L29.7856 48.7432L29.785 60.2677L28.3583 61.0053C26.5074 61.9624 24.7772 63.661 24.0342 65.2502C23.5627 66.2591 23.4506 66.8081 23.4495 68.1141C23.4454 72.5797 27.1954 75.7314 34.3424 77.2695C36.8086 77.8002 42.102 77.8002 44.5682 77.2695C49.9604 76.1091 53.3097 74.1027 54.7551 71.167C55.3657 69.927 55.4626 69.5078 55.4626 68.1096C55.4626 66.7124 55.3655 66.2918 54.7576 65.0575C52.7867 61.0539 46.9882 58.5829 39.509 58.5593L36.2326 58.549L36.2324 46.5714C36.2324 39.9836 36.1597 34.5983 36.0712 34.6038C35.9827 34.6094 35.475 34.7854 34.9432 34.9949ZM69.3782 58.7728C65.5642 59.7998 62.838 62.801 62.1685 66.7099C61.1174 72.8458 66.9481 78.6761 73.0846 77.6251C77.3148 76.9006 80.4765 73.7392 81.201 69.5093C82.3211 62.9714 75.7949 57.0448 69.3782 58.7728ZM35.6952 65.1106C30.0946 65.9818 28.0807 68.347 31.5774 69.9469C33.7849 70.9569 35.3931 71.2087 39.5627 71.1971C42.8302 71.1883 43.6924 71.1148 45.1202 70.7247C47.1979 70.1571 48.4664 69.4777 48.9011 68.7004C49.1985 68.1689 49.1985 68.0503 48.9011 67.5188C48.0724 66.0365 44.8643 65.1031 40.2073 64.989C38.4347 64.9456 36.4043 65.0003 35.6952 65.1106ZM70.2276 65.2319C67.4088 66.6699 68.1993 70.9228 71.3517 71.2779C73.8168 71.5557 75.6486 68.9834 74.5835 66.7393C73.8381 65.1688 71.7608 64.4499 70.2276 65.2319Z" fill="#00AACB"/>
</g>
<defs>
<filter id="filter0_d_186_24968" x="0" y="0" width="118" height="118" filterUnits="userSpaceOnUse" color-interpolation-filters="sRGB">
<feFlood flood-opacity="0" result="BackgroundImageFix"/>
<feColorMatrix in="SourceAlpha" type="matrix" values="0 0 0 0 0 0 0 0 0 0 0 0 0 0 0 0 0 0 127 0" result="hardAlpha"/>
<feOffset dy="4"/>
<feGaussianBlur stdDeviation="2"/>
<feComposite in2="hardAlpha" operator="out"/>
<feColorMatrix type="matrix" values="0 0 0 0 0 0 0 0 0 0 0 0 0 0 0 0 0 0 0.25 0"/>
<feBlend mode="normal" in2="BackgroundImageFix" result="effect1_dropShadow_186_24968"/>
<feBlend mode="normal" in="SourceGraphic" in2="effect1_dropShadow_186_24968" result="shape"/>
</filter>
</defs>
</svg>

<svg xmlns="http://www.w3.org/2000/svg" width="118" height="118" fill="none" viewBox="0 0 118 118"><g filter="url(#a)"><path fill="#00aacb" fill-rule="evenodd" d="M31.552.361c-.388.191-.92.648-1.181 1.016l-.477.668-.057 17.562-.058 17.563-1.554.782C14.005 45.106 5.673 54.417 4.233 64.765c-1.592 11.45 5.016 22.383 18.44 30.51 13.379 8.1 32.717 13.322 53.739 14.51 10.185.576 16.345.022 22.448-2.02 4.676-1.564 7.634-3.313 10.543-6.231 1.632-1.638 2.103-2.276 2.944-3.99 2.263-4.614 2.188-9.454-.209-13.514-2.174-3.682-6.764-7.268-11.984-9.362-2.405-.965-3.37-1.593-4.194-2.73-1.806-2.494-1.663-5.976.334-8.11.924-.988 1.357-1.234 4.612-2.61 3.496-1.479 6.686-3.646 8.963-6.089 5.464-5.86 5.511-13.311.121-19.04-4.208-4.473-11.322-7.678-20.579-9.27-2.38-.41-3.573-.48-8.057-.477-13.439.008-29.056 2.575-41.254 6.779a351 351 0 0 1-3.492 1.19c-.35.11-.376-.21-.376-4.689v-4.806l12.07-4.511c10.136-3.787 12.184-4.622 12.775-5.205a3.087 3.087 0 0 0 0-4.411c-.594-.587-2.793-1.474-14.117-5.699C39.583 2.238 33.257-.007 32.902 0s-.962.17-1.35.361m3.391 34.634c-.532.21-1.91.796-3.062 1.302l-2.094.922-.001 11.524-.001 11.525-1.427.737c-1.85.957-3.58 2.656-4.324 4.245-.471 1.01-.583 1.558-.584 2.864-.005 4.466 3.745 7.617 10.892 9.155 2.467.531 7.76.531 10.226 0 5.392-1.16 8.742-3.166 10.187-6.102.61-1.24.708-1.66.708-3.057s-.098-1.818-.705-3.052c-1.971-4.004-7.77-6.475-15.249-6.499l-3.276-.01V46.571c0-6.587-.073-11.973-.162-11.967-.088.005-.596.181-1.128.39m34.435 23.778c-3.814 1.027-6.54 4.028-7.21 7.937-1.05 6.136 4.78 11.966 10.917 10.915 4.23-.724 7.392-3.886 8.116-8.116 1.12-6.538-5.406-12.464-11.823-10.736M35.695 65.11c-5.6.87-7.614 3.236-4.118 4.836 2.208 1.01 3.816 1.262 7.986 1.25 3.267-.009 4.13-.082 5.557-.472 2.078-.568 3.346-1.247 3.781-2.025.297-.531.297-.65 0-1.181-.829-1.483-4.037-2.416-8.694-2.53-1.772-.043-3.803.011-4.512.122m34.533.12c-2.82 1.439-2.029 5.692 1.124 6.047 2.465.278 4.297-2.295 3.231-4.539-.745-1.57-2.822-2.29-4.355-1.507" clip-rule="evenodd"/></g><defs><filter id="a" width="118" height="118" x="0" y="0" color-interpolation-filters="sRGB" filterUnits="userSpaceOnUse"><feFlood flood-opacity="0" result="BackgroundImageFix"/><feColorMatrix in="SourceAlpha" result="hardAlpha" values="0 0 0 0 0 0 0 0 0 0 0 0 0 0 0 0 0 0 127 0"/><feOffset dy="4"/><feGaussianBlur stdDeviation="2"/><feComposite in2="hardAlpha" operator="out"/><feColorMatrix values="0 0 0 0 0 0 0 0 0 0 0 0 0 0 0 0 0 0 0.25 0"/><feBlend in2="BackgroundImageFix" result="effect1_dropShadow_186_24968"/><feBlend in="SourceGraphic" in2="effect1_dropShadow_186_24968" result="shape"/></filter></defs></svg>
